X:1
T:Dolce felice e lieta
T:Giovanni Animuccia
T:Source : Primo libro delle Laude spirituali a tre voci---Roma---A.Gardano---1583 Editor : André Vierendeels (23/11/17). Notes : Original clefs : CI, C2, C3 Editorial accidentals above the staff
T:Dolce felice e lieta
T:©
T:©
C:Giovanni Animuccia
Z:©
%%score [ 1 2 3 ]
L:1/8
Q:1/4=120
M:4/4
K:C
V:1 treble nm="Soprano" snm="S"
V:2 treble nm="Alto" snm="A"
V:3 treble-8 nm="Tenor" snm="T"
V:1
"^1)" z4 G4 | E6 F2 | G2 A2 G4 | G4 G4 | E6 F2 |"^1)""^4)" G2 A2 G4 | G4 z2 c2 | c4 z2 c2 | %8
w: Dol-|ce fe-|li- c'e lie-|ta not-|te piu|ch'al- cun gior-|no a-|er, a-|
w: Madre|di- let-|ta, e bel-|la, di|quel che|mon- do reg-|ge, lie-|ti lie-|
 c2 c2 c3 c | c4 c4 | z4 d4 | B4 c4 | A8 | G8 :| %14
w: er di lu- ce'a-|dor- no,|e|gra- ta|stel-|la.|
w: ti pa- stor pia|greg- ge,|e|vec- chio|san-|to.|
V:2
"^2)""^1)" z4 E4 | G6 F2 | E2 F2 E4 | E4 E4 | G6 F2 | E2 F2 E4 | E4 z2 A2 | A4 z2 A2 | A2 A2 A3 A | %9
w: Dol-|ce fe-|li- c'e lie-|ta not-|te piu|ch'al- cun gior-|no a-|er, a-|er di lu- ce'a-|
w: Te-|nor men-|tre ch'io can-|to, fa-|teal- le|mie pa- ro-|le; poi|che, poi|che l'u- ni- co|
 A4 A4 | z4 F4 | G4 G4- | G4 ^F4 | G8 :| %14
w: dor- no,|e|gra- ta|_ stel-|la.|
w: so- le,|a|noi de-|* scen-|de.|
V:3
"^3)" z4 c4 | c6 d2 | c2 F2 c4 | c4 c4 | c6 d2 | c2 F2 c4 | c4 z2 f2 | f4 z2 f2 | f2 f2 f3 f | %9
w: Dol-|ce fe-|li- c'e lie-|ta not-|te piu|ch'al- cun gior-|no a-|er, a-|er di lu- ce'a-|
w: Un|di- vin|lu- me splen-|de in|ci- m'al-|la cap- pan-|na d'An-|gel, d'An-|gel can- tand' O-|
 f4 f4 | z4 d4 | e4 c4 | d8 | G8 :| %14
w: dor- no,|e|gra- ta|stel-|la.|
w: san- na,|un|chor si|scor-|ge.|

